React/src/assets/images/otherSkills/husky.svg

<svg width="130" height="130" viewBox="0 0 130 130" fill="none" xmlns="http://www.w3.org/2000/svg">
<path d="M70.8662 15.9061C76.2986 18.0791 78.4458 26.6294 75.6082 35.0784C72.7949 43.4845 66.155 48.6054 60.6983 46.4745C55.2838 44.3685 53.0938 35.7939 55.8893 27.3201C58.66 18.889 65.3847 13.818 70.8663 15.9061H70.8662ZM101.256 33.4512C105.848 37.1789 104.776 45.5141 98.9446 52.1782C92.9614 58.8115 84.4832 61.2268 79.9094 57.5661C75.2932 53.8809 76.4077 45.5703 82.3237 38.9555C88.2219 32.2735 96.7001 29.8582 101.256 33.4516L101.256 33.4512ZM36.8411 22.3291C42.8888 23.0438 47.2925 30.6301 46.9318 39.2058C46.2848 47.7863 41.1061 54.2034 35.1012 53.5133C29.0958 52.823 24.7099 45.3038 25.205 36.6924C25.6999 28.081 30.9878 21.6698 36.8411 22.3291V22.3291ZM113.346 66.4993C116.843 71.2387 113.936 79.0237 106.725 83.7578C99.515 88.492 90.81 88.4534 87.2096 83.5979C83.6092 78.7424 86.5775 71.0491 93.6852 66.1985C100.932 61.5982 109.703 61.619 113.346 66.4991V66.4993ZM79.7952 108.219C77.6586 112.312 72.0461 114.966 67.4339 114.513C57.8139 113.606 52.9746 101.178 44.5165 96.2946C36.0584 91.4113 22.6196 93.683 17.3232 85.5815C14.2753 81.045 14.5327 73.8262 17.7354 69.5552C22.1568 63.664 31.7278 64.6562 38.9081 62.6246C48.3607 60.0917 59.1139 51.2826 67.6571 56.2145C76.1574 61.1222 74.2584 74.8164 76.438 84.2923C78.162 92.2017 83.4976 101.119 79.7952 108.219H79.7952Z" fill="#90A4AE"/>
</svg>

<svg width="130" height="130" fill="none" xmlns="http://www.w3.org/2000/svg"><path d="M70.866 15.906c5.433 2.173 7.58 10.723 4.742 19.172-2.813 8.406-9.453 13.527-14.91 11.396-5.414-2.105-7.604-10.68-4.809-19.154 2.771-8.431 9.496-13.502 14.977-11.414zm30.39 17.545c4.592 3.728 3.52 12.063-2.311 18.727-5.984 6.634-14.462 9.049-19.036 5.388-4.616-3.685-3.501-11.996 2.415-18.61 5.898-6.683 14.376-9.098 18.932-5.504zM36.841 22.33c6.048.715 10.451 8.301 10.09 16.877-.646 8.58-5.825 14.997-11.83 14.307-6.005-.69-10.391-8.21-9.896-16.82.495-8.612 5.783-15.023 11.636-14.364zm76.505 44.17c3.497 4.74.59 12.525-6.621 17.259-7.21 4.734-15.915 4.695-19.515-.16-3.6-4.856-.632-12.549 6.475-17.4 7.247-4.6 16.018-4.579 19.661.301zm-33.55 41.72c-2.137 4.093-7.75 6.747-12.362 6.294-9.62-.907-14.46-13.335-22.917-18.218-8.459-4.884-21.897-2.612-27.194-10.713-3.048-4.537-2.79-11.756.412-16.027 4.422-5.891 13.993-4.899 21.173-6.93 9.453-2.533 20.206-11.342 28.75-6.41 8.5 4.907 6.6 18.601 8.78 28.077 1.724 7.91 7.06 16.827 3.357 23.927z" fill="#90A4AE"/></svg>
